X:615
T:Miss Colston
R:Strathspey
C:Niel Gow
B:The Athole Collection
M:C
L:1/8
K:G Minor
c|B/c/d G>d B<d g>d|f<c d>B A/B/c/A/ F>c|B<dG<d B<dg<d|
f>c d/c/B/A/ B<GG:|
|:g|d>gb>g d>gb>g|f>ac>f A>F A/B/c/A/|1 d>gb>g d>gb>g|
d>g ^f/g/a/f/ g<GG:|2 B/c/d G>d B<dg<d|f>c d/c/B/A/ B<GG||

